X: 8456
T: Craic With Jack
R: polka
M: 2/4
K: Adorian
|:eA a>g|ed cA|d2 dA|B/c/d BG|
[1 eA a>g|ed cA|dc Bc|A2 A/B/c/d/:|
[2 A>G ED|EG AB|cd Bc|A2 AB||
A a2 A|g2 fg/f/|ed eg|e/f/e/d/ cB|
A a2 A|g2 fg/f/|ed eg|a2 a/g/f/g/|
ag ed|eA AB/c/|d2 dA|B/c/d BG|
A>G ED|EG AB|cd Bc/B/|AB cB||

